X:1
T:Olaf Trygvason
T:Olaf Trygvason
T:Björnstjerne Björnson
T:F.A. Reissiger
T:English words by Rasmus B. Anderson
C:F.A. Reissiger
Z:Bjørnstjerne Bjørnson
%%score [ 1 2 3 4 ]
L:1/8
Q:1/4=94
M:4/4
K:Ab
V:1 treble-8 nm="T1"
V:2 treble-8 nm="T2"
V:3 bass nm="B1"
V:4 bass nm="B2"
V:1
!f!"^Moderato" c3 B | A2 G3/2 F/ G2 C2 | F4 A3 B | c2 B3/2 A/ f2 d2 | c4 c2 B2 | A2 A4 B2 | %6
w: Spread- ing|sails o'er the North Sea|speed, High on|deck, stands at dawn, in-|deed, Er- ling|Skalg- son from|
 G2 F4 z2 | z8 | z2!p! f3/2!<(! f/ f2 f2!<)! |!>(! _g6 f2!>)! | .e2 .d2 z2!pp! !>!d2- | %11
w: So- le,||Spy- ing o'er the|sea, tow'rd|Den- mark: Where-|
 d3/2 d/ d d!<(! d2 d2!<)! |!p!!>(! c3/2 =e/!>)! !fermata!e2 ||!mf! c3 B | A2 G3/2 F/ G2 C2 | %15
w: * fore comes not O- laf|Tryg- va- son?|Six and|fif- ty the drag- ons|
 F4 A2!<(! A B | c2!<)! z!f! A f2 d2 | c2 c4!>(! B3/2 B/!>)! | A2!mf! z2!<(! !>!A4!<)! | %19
w: are, Sails are all|furl'd, Tow'rd Den- mark|stare sun scorch- ed|men, then|
 !>!d2 !>!c2 z4 | z2 z!mf! f =e3/2 d/ c B | !>!A F!<(! d3/2 d/ d!<)! d"^poco ritenuto" d d | %22
w: ris- es.|Where stays the king's Long|Ser- pent? Where- fore comes not O- laf|
!f! f3/2 =e/ !fermata!e2 ||!mf!"^a tempo" c3 B | A2 G3/2 F/ G2 C2 | F4 A3!<(! B | %26
w: Tryg- va son?|But when|sun on the sec- ond|day Saw the|
 c2!<)! B3/2 A/!>(! f2 d2 | c2!>)! z2!<(! !>!c2 !>!c !>!c!<)! | !>!f6 !>!f2 | %29
w: wa- ter- y mast- less|way, Like a great|storm it|
!>(! !>!=e2 !>!c!>)! z z2 z2 | z2 z!f! c B A!<(! G A!<)! | !>!f !>!f z!mf! f =e!<(! f e f!<)! | %32
w: sound- ed;|Where stays the king's Long|Ser- pent? Where stays the king's Long|
!>(! a g!>)! z f =e!<(! f e f!<)! | !>!a !>!g z2!ff!"^poco accellerando" !>!b2 !>!a2 | %34
w: Ser- pent? Where stays the king's Long|Ser- pent? Where- fore|
 !>!_g2 !>!f2 !>!f2 !>!f2 |"^ritenuto" !>!=e3/2 g/ g2 ||!pp!"^a tempo" c3 B | A2 G3/2 F/ G2 C2 | %38
w: comes not O- laf|Tryg- va- son?|Qui- et,|qui- et in that same|
 F4 .A2 .B2 | .c2 z2 z2 E3/2 E/ |!<(! E4 =E4!<)! |!>(! F4!>)! !>!A4- | %42
w: hour stood they|all; for with|end- less|power Groan-|
 A2!<(! B c!<)! !>!d2!>(! c2!>)! | =B4 c2 z2 | z2!p! !>!A2-!>(! A3/2 G/!>)! F2 | %45
w: * ing the sea was|splash- ing:|Tak- * en the|
!>(! =E2 F2!>)!!>(! E2 F2!>)! | z2!p! !>!A2-!>(! A3/2 G/!>)! F2 | =E2 F2!p!!<(! A4-!<)! | %48
w: king's Long Ser- pent!|Fal- * len is|O- lav Tryg-|
 !fermata!A3/2"^ritenuto"!>(! G/!>)!!pp! !fermata!G2 ||!mf! c3 B | A2 G3/2 F/ G2 C2 | F4 A3!<(! B | %52
w: * va- son!|Then for|more than a hun- dred|years Sounds in|
 c2!<)! B3/2 A/!>(! f2 d2!>)! | c4 !>!A4- | A2!<(! B c!<)! d2!>(! c2!>)! | =B4 c2 z2 | %56
w: ev- e- ry sea- man's|ears, Chief-|* ly in moon- lit|watch- es:|
 z2!pp! !>!A2-!>(! A3/2 G/!>)! F2 |!>(! =E2!>)! F2!>(! E2!>)! F2 | %58
w: Tak- * en the|king's Long Ser- pent,|
 z2!pp! !>!A2-!>(! A3/2 G/!>)! F2 | =E2 F2!<(! z4!<)! |!p!!>(! c4-!>)!"^morendo" c7/2 c/ | %61
w: Fal- * len is|O- laf|Tryg- * va-|
 !fermata!c4 |] %62
w: son!|
V:2
!f! c3 B | A2 G3/2 F/ G2 C2 | F4 A3 B | c2 B3/2 A/ f2 d2 | c4 c2 B2 | A2 A4 F2 | =E2 F4 z2 | %7
w: Spread- ing|sails o'er the North Sea|speed, High on|deck, stands at dawn, in-|deed, Er- ling|Skalg- son from|So- le,|
 z4 z2!p! c2- | c7/2!<(! c/ c2 c2!<)! |!>(! c6 d2!>)! | .=A2 .B2 z2!pp! !>!B2- | %11
w: Spy-|* ing o'er the|sea, tow'rd|Den- mark: Where-|
 B3/2 B/ B B!<(! B2 B2!<)! |!p!!>(! G3/2 c/!>)! !fermata!c2 ||!mf! c3 B | A2 G3/2 F/ G2 C2 | %15
w: * fore comes not O- laf|Tryg- va- son?|Six and|fif- ty the drag- ons|
 F4 A2!<(! A B | c2!<)! z!f! A f2 d2 | c2 c4!>(! B3/2 B/!>)! | A2!mf! z2!<(! !>!F4!<)! | %19
w: are, Sails are all|furl'd, Tow'rd Den- mark|stare sun scorch- ed|men, then|
 !>!G2 !>!G2 z4 | z!mf! d c =B c3/2 _B/ G =E | z2!<(! B3/2 B/ B!<)! B B B | %22
w: ris- es.|Where stays the king's Long Ser- pent?|Where- fore comes not O- laf|
!f! d3/2 c/ !fermata!c2 ||!mf! c3 B | A2 G3/2 F/ G2 C2 | F4 A3!<(! B | c2!<)! B3/2 A/!>(! f2 d2 | %27
w: Tryg- va son?|But when|sun on the sec- ond|day Saw the|wa- ter- y mast- less|
 c2!>)! z2!<(! !>!c2 !>!c !>!B!<)! | !>!A2 !>!=A2 !>!B2 !>!=B2 |!>(! !>!c2 !>!G!>)! z z2 z2 | %30
w: way, Like a great|storm, a storm, it|sound- ed;|
 z2 z!f! A G F!<(! =E F!<)! | !>!d !>!d!mf! d6- | d2 d6- | d2 z2!ff! !>!=e2 !>!f2 | %34
w: Where stays the king's Long|Ser- pent? Where?|_ Where?|_ Where- fore|
 !>!d2 !>!d2 !>!c2 !>!=B2 | !>!c3/2 =e/ e2 ||!pp! c3 B | A2 G3/2 F/ G2 C2 | F4 .A2 .B2 | %39
w: comes not O- laf|Tryg- va- son?|Qui- et,|qui- et in that same|hour stood they|
 .c2 z2 z2 E3/2 E/ |!<(! E4 =E4!<)! |!>(! F4!>)! !>!A4- | A2!<(! A A!<)! !>!A2!>(! A2!>)! | %43
w: all; for with|end- less|power Groan-|* ing the sea was|
 (!>!A2 G2) G2 z2 | z2!p! !>!F2-!>(! F3/2 =E/!>)! F2 |!>(! =E2 F2!>)!!>(! E2 F2!>)! | %46
w: splash- * ing:|Tak- * en the|king's Long Ser- pent!|
 z2!p! !>!F2-!>(! F3/2 =E/!>)! F2 | =E2 F2!p!!<(! F4-!<)! | %48
w: Fal- * len is|O- lav Tryg-|
 !fermata!F3/2!>(! =E/!>)!!pp! !fermata!E2 ||!mf! c3 B | A2 G3/2 F/ G2 C2 | F4 A3!<(! B | %52
w: * va- son!|Then for|more than a hun- dred|years Sounds in|
 c2!<)! B3/2 A/!>(! f2 d2!>)! | c4 !>!A4- | A2!<(! A A!<)! A2!>(! A2!>)! | (!>!A2 G2) G2 z2 | %56
w: ev- e- ry sea- man's|ears, Chief-|* ly in moon- lit|watch- * es:|
 z2!pp! !>!F2-!>(! F3/2 =E/!>)! F2 |!>(! =E2!>)! F2!>(! E2!>)! F2 | %58
w: Tak- * en the|king's Long Ser- pent,|
 z2!pp! !>!F2-!>(! F3/2 =E/!>)! F2 | =E2 F2!<(! (A4!<)! |!p!!>(! G4-)!>)! G7/2 A/ | !fermata!A4 |] %62
w: Fal- * len is|O- laf Tryg-|* * va-|son!|
V:3
!f! C3 B, | A,2 G,3/2 F,/ G,2 C,2 | F,4 A,3 B, | C2 B,3/2 A,/ D2 B,2 | A,4 =E,2 G,2 | F,2 F,4 D,2 | %6
w: Spread- ing|sails o'er the North Sea|speed, High on|deck, stands at dawn, in-|deed, Er- ling|Skalg- son from|
 C,2 F,4 z2 | z2!p! A,6- | A,7/2!<(! A,/ A,2 A,2!<)! |!>(! =A,6 B,2!>)! | .F,2 .F,2 z4 | %11
w: So- le,|Spy-|* ing o'er the|sea, tow'rd|Den- mark:|
!pp! !>!_G,3/2 F,/ =E, F,!<(! F,2 F,2!<)! |!p!!>(! =E,3/2 G,/!>)! !fermata!G,2 ||!mf! C3 B, | %14
w: Where- fore comes not O- laf|Tryg- va- son?|Six and|
 A,2 G,3/2 F,/ G,2 C,2 | F,4 F,2!<(! F, G, | A,2!<)! z!f! F, D2 B,2 | A,2 =E,4!>(! G,3/2 G,/!>)! | %18
w: fif- ty the drag- ons|are, Sails are all|furl'd, Tow'rd Den- mark|stare sun scorch- ed|
 F,2!mf! z2!<(! !>!F,4!<)! | !>!F,2 !>!=E,2 z!mf! A, G, A, | B,3/2 A,/ G, F, G,3/2 F,/ =E, G, | %21
w: men, then|ris- es. Where stays the|king's Long Ser- pent? Where- fore comes not|
 !>!F, F,!<(! F,3/2 F,/ _G,!<)! F, =E, F, |!f! B,3/2 G,/ !fermata!G,2 ||!mf! C3 B, | %24
w: O- laf? Where- fore comes not O- laf|Tryg- va son?|But when|
 A,2 G,3/2 F,/ G,2 C,2 | F,4 A,3!<(! B, | C2!<)! B,3/2 A,/!>(! D2 B,2 | %27
w: sun on the sec- ond|day Saw the|wa- ter- y mast- less|
 A,2!>)! z2!<(! !>!C2 !>!A, !>!G,!<)! | !>!F,6 !>!F,2 | %29
w: way, Like a great|storm it|
!>(! !>!G,2 !>!=E,!>)! z z!f! G, F,!<(! =E, | A,!<)! C D C z4 | z!mf! D, F, B, B,2 B,2 | %32
w: sound- ed; Where stays the|king's Long Ser- pent?|Where stays the king's Long|
 B, B, B,6- | B,2!ff! !>!D4 !>!C2 | !>!B,2 !>!A,2 !>!A,2 !>!F,2 | !>!G,3/2 C/ C2 ||!pp! C3 B, | %37
w: Ser- pent? Where?|_ Where- fore|comes not O- laf|Tryg- va- son?|Qui- et,|
 A,2 G,3/2 F,/ G,2 C,2 | F,4 .F,2 .D,2 | .E,2 z2 z2 E,3/2 E,/ |!<(! E,4 =E,4!<)! |!>(! F,4!>)! z4 | %42
w: qui- et in that same|hour stood they|all; for with|end- less|power|
 !>!F,2!<(! F, F,!<)! !>!F,2!>(! F,2!>)! | F,4 =E,2 z2 | z2!p! !>!C,2-!>(! C,3/2 C,/!>)! C,2 | %45
w: Groan- ing the sea was|splash- ing:|Tak- * en the|
!>(! D,2 C,2!>)!!>(! D,2 C,2!>)! | z2!p! !>!C,2-!>(! C,3/2 C,/!>)! C,2 | D,2 C,2!p!!<(! =D,4-!<)! | %48
w: king's Long Ser- pent!|Fal- * len is|O- lav Tryg-|
 !fermata!D,3/2!>(! C,/!>)!!pp! !fermata!C,2 ||!mf! C3 B, | A,2 G,3/2 F,/ G,2 C,2 | %51
w: * va- son!|Then for|more than a hun- dred|
 F,4 A,3!<(! B, | C2!<)! B,3/2 A,/!>(! D2 B,2!>)! | A,4 z4 | !>!F,2!<(! F, F,!<)! F,2!>(! F,2!>)! | %55
w: years Sounds in|ev- e- ry sea- man's|ears,|Chief- ly in moon- lit|
 F,4 =E,2 z2 | z2!pp! !>!C,2-!>(! C,3/2 C,/!>)! C,2 |!>(! D,2!>)! C,2!>(! D,2!>)! C,2 | %58
w: watch- es:|Tak- * en the|king's Long Ser- pent,|
 z2!pp! !>!C,2-!>(! C,3/2 C,/!>)! C,2 | D,2 C,2!<(! F,4-!<)! |!p!!>(! (F,4!>)! =E,7/2) F,/ | %61
w: Fal- * len is|O- laf Tryg-|* * va-|
 !fermata!F,4 |] %62
w: son!|
V:4
!f! C3 B, | A,2 G,3/2 F,/ G,2 C,2 | F,4 A,3 B, | C2 B,3/2 A,/ D2 B,2 | A,4 =E,2 G,2 | %5
w: Spread- ing|sails o'er the North Sea|speed, High on|deck, stands at dawn, in-|deed, Er- ling|
 F,2 D,4 B,,2 | C,2 F,,4!p! F,2- | F,8- | F,7/2!<(! F,/ F,2 F,2!<)! |!>(! E,6 D,2!>)! | %10
w: Skalg- son from|So- le, Spy-||* ing o'er the|sea, tow'rd|
 .C,2 .B,,2 z4 |!pp! !>!_G,3/2 F,/ =E, F,!<(! D,2 B,,2!<)! |!p!!>(! C,3/2 C,/!>)! !fermata!C,2 || %13
w: Den- mark:|Where- fore comes not O- laf|Tryg- va- son?|
!mf! C3 B, | A,2 G,3/2 F,/ G,2 C,2 | F,4 F,2!<(! F, G, | A,2!<)! z!f! F, D2 B,2 | %17
w: Six and|fif- ty the drag- ons|are, Sails are all|furl'd, Tow'rd Den- mark|
 A,2 =E,4!>(! G,3/2 G,/!>)! | F,2!mf! z2!<(! !>!D,4!<)! | !>!B,,2 !>!C,2 z!mf! F, =E, F, | %20
w: stare sun scorch- ed|men, then|ris- es. Where stays the|
 G,3/2 F,/ =E, D, C,3/2 C,/ C, C, | !>!D, D,!<(! B,,3/2 B,,/ B,,!<)! B,, B,, B,, | %22
w: king's Long Ser- pent? Where- fore comes not|O- laf? Where- fore comes not O- laf|
!f! G,,3/2 C,/ !fermata!C,2 ||!mf! C3 B, | A,2 G,3/2 F,/ G,2 C,2 | F,4 A,3!<(! B, | %26
w: Tryg- va son?|But when|sun on the sec- ond|day Saw the|
 C2!<)! B,3/2 A,/!>(! D2 B,2 | A,2!>)! z2!<(! !>!C,2 !>!C, !>!C,!<)! | !>!D,6 !>!D,2 | %29
w: wa- ter- y mast- less|way, Like a great|storm it|
!>(! !>!C,2 !>!C,!>)!!f! G, F, =E, D,!<(! C, | F,!<)! A, z2 z4 | %31
w: sound- ed; Where stays the king's Long|Ser- pent?|
 z!mf! B,, D, F, G,!<(! F, G, F,!<)! |!>(! =E, E,!>)! z F, G,!<(! F, G, F,!<)! | %33
w: Where stays the king's, the king's Long|Ser- pent? Where stays the king's Long|
 !>!=E, !>!E, z2!ff! !>!G,2 !>!F,2 | !>!B,,2 !>!=B,,2 !>!C,2 !>!D,2 | !>!C,3/2 C/ C2 ||!pp! C3 B, | %37
w: Ser- pent? Where- fore|comes not O- laf|Tryg- va- son?|Qui- et,|
 A,2 G,3/2 F,/ G,2 C,2 | F,4 .D,2 .B,,2 | .A,,2 z2 z2 E,3/2 E,/ |!<(! E,4 =E,4!<)! | %41
w: qui- et in that same|hour stood they|all; for with|end- less|
!>(! F,4!>)! z4 | !>!D,2!<(! D, C,!<)! !>!B,,2!>(! C,2!>)! | D,4 C,2 z2 | %44
w: power|Groan- ing the sea was|splash- ing:|
!mf! !>!F,,4-!>(! F,,3/2 G,,/!>)! A,,2 |!>(! B,,2 A,,2!>)!!>(! B,,2 A,,2!>)! | %46
w: Tak- * en the|king's Long Ser- pent!|
!mf! !>!F,,4-!>(! F,,3/2 G,,/!>)! A,,2 | B,,2 A,,2!p!!<(! =B,,4-!<)! | %48
w: Fal- * len is|O- lav Tryg-|
 !fermata!B,,3/2!>(! C,/!>)!!pp! !fermata!C,2 ||!mf! C3 B, | A,2 G,3/2 F,/ G,2 C,2 | %51
w: * va- son!|Then for|more than a hun- dred|
 F,4 A,3!<(! B, | C2!<)! B,3/2 A,/!>(! D2 B,2!>)! | A,4 z4 | %54
w: years Sounds in|ev- e- ry sea- man's|ears,|
 (!>!F,E,)!<(! D, C,!<)! B,,2!>(! C,2!>)! | D,4 C,2 z2 |!p! !>!F,,4-!>(! F,,3/2 G,,/!>)! A,,2 | %57
w: Chief- * ly in moon- lit|watch- es:|Tak- * en the|
!>(! B,,2!>)! A,,2!>(! B,,2!>)! A,,2 |!p! !>!F,,4-!>(! F,,3/2 G,,/!>)! A,,2 | %59
w: king's Long Ser- pent,|Fal- * len is|
 B,,2 A,,2!pp!!<(! C,4-!<)! |!p!!>(! C,4-!>)! C,7/2 F,,/ | !fermata!F,,4 |] %62
w: O- laf Tryg-|* * va-|son!|

